Dominus_Funeral/22/places/folder-script.svg

<svg xmlns="http://www.w3.org/2000/svg" width="24" height="24" viewBox="0 0 12.7 12.7"><defs><linearGradient id="a"><stop offset="0" stop-color="#216778"/><stop offset="1" stop-color="#5fbcd3"/></linearGradient></defs><path d="M7.715 2.205a.22.22 0 0 0-.199.132L4.26 10.02a.22.22 0 0 0 .11.264l.55.22a.22.22 0 0 0 .154 0 .22.22 0 0 0 .11-.11l2.73-7.703a.22.22 0 0 0-.11-.265l-.022-.22a.22.22 0 0 0-.066-.022zm-3.896 1.43a.22.22 0 0 0-.132.045L.606 5.99a.22.22 0 0 0 0 .331l3.08 2.311a.22.22 0 0 0 .287-.044l.374-.484a.22.22 0 0 0-.044-.286L2.058 6.167l2.245-1.673a.22.22 0 0 0 .044-.286l-.352-.462a.22.22 0 0 0-.176-.088zm5.062 0a.22.22 0 0 0-.176.089l-.352.462a.22.22 0 0 0 .044.286l2.245 1.673-2.245 1.673a.22.22 0 0 0-.044.286l.352.484a.22.22 0 0 0 .308.044l3.081-2.311a.22.22 0 0 0 0-.33L9.014 3.68a.22.22 0 0 0-.133-.044z" fill="#1a1a1a"/></svg>

<?xml version="1.0" encoding="UTF-8" standalone="no"?>
<svg
   xmlns:dc="http://purl.org/dc/elements/1.1/"
   xmlns:cc="http://creativecommons.org/ns#"
   xmlns:rdf="http://www.w3.org/1999/02/22-rdf-syntax-ns#"
   xmlns:svg="http://www.w3.org/2000/svg"
   xmlns="http://www.w3.org/2000/svg"
   xmlns:sodipodi="http://sodipodi.sourceforge.net/DTD/sodipodi-0.dtd"
   xmlns:inkscape="http://www.inkscape.org/namespaces/inkscape"
   width="24"
   height="24"
   viewBox="0 0 12.7 12.7"
   version="1.1"
   id="svg11"
   sodipodi:docname="folder-script.svg"
   inkscape:version="0.92.4 (5da689c313, 2019-01-14)">
  <metadata
     id="metadata15">
    <rdf:RDF>
      <cc:Work
         rdf:about="">
        <dc:format>image/svg+xml</dc:format>
        <dc:type
           rdf:resource="http://purl.org/dc/dcmitype/StillImage" />
        <dc:title></dc:title>
      </cc:Work>
    </rdf:RDF>
  </metadata>
  <sodipodi:namedview
     pagecolor="#ffffff"
     bordercolor="#666666"
     borderopacity="1"
     objecttolerance="10"
     gridtolerance="10"
     guidetolerance="10"
     inkscape:pageopacity="0"
     inkscape:pageshadow="2"
     inkscape:window-width="1112"
     inkscape:window-height="480"
     id="namedview13"
     showgrid="false"
     inkscape:zoom="9.8333333"
     inkscape:cx="1.0677966"
     inkscape:cy="12"
     inkscape:window-x="0"
     inkscape:window-y="25"
     inkscape:window-maximized="0"
     inkscape:current-layer="svg11" />
  <defs
     id="defs7">
    <linearGradient
       id="a">
      <stop
         offset="0"
         stop-color="#216778"
         id="stop2" />
      <stop
         offset="1"
         stop-color="#5fbcd3"
         id="stop4" />
    </linearGradient>
  </defs>
  <path
     d="M 7.715,2.205 A 0.22,0.22 0 0 0 7.516,2.337 L 4.26,10.02 a 0.22,0.22 0 0 0 0.11,0.264 l 0.55,0.22 a 0.22,0.22 0 0 0 0.154,0 0.22,0.22 0 0 0 0.11,-0.11 L 7.914,2.691 A 0.22,0.22 0 0 0 7.804,2.426 L 7.782,2.206 A 0.22,0.22 0 0 0 7.716,2.184 Z M 3.819,3.635 A 0.22,0.22 0 0 0 3.687,3.68 L 0.606,5.99 a 0.22,0.22 0 0 0 0,0.331 l 3.08,2.311 A 0.22,0.22 0 0 0 3.973,8.588 L 4.347,8.104 A 0.22,0.22 0 0 0 4.303,7.818 L 2.058,6.167 4.303,4.494 A 0.22,0.22 0 0 0 4.347,4.208 L 3.995,3.746 A 0.22,0.22 0 0 0 3.819,3.658 Z m 5.062,0 A 0.22,0.22 0 0 0 8.705,3.724 L 8.353,4.186 A 0.22,0.22 0 0 0 8.397,4.472 L 10.642,6.145 8.397,7.818 A 0.22,0.22 0 0 0 8.353,8.104 l 0.352,0.484 a 0.22,0.22 0 0 0 0.308,0.044 l 3.081,-2.311 a 0.22,0.22 0 0 0 0,-0.33 L 9.014,3.68 A 0.22,0.22 0 0 0 8.881,3.636 Z"
     id="path9"
     inkscape:connector-curvature="0"
     style="fill:#1a1a1a" />
</svg>
